react/assets/forus-webshop/resources/webshop-schouwen_duiveland/assets/img/icon-app/app-store-ios-dark.svg

<svg width="142" height="42" viewBox="0 0 142 42" fill="none" xmlns="http://www.w3.org/2000/svg">
    <rect width="142" height="42" fill="black"/>
    <path d="M35.6861 19.2299C35.7108 17.4382 36.717 15.7832 38.3522 14.8447C37.316 13.4632 35.6426 12.6187 33.8368 12.5659C31.937 12.3798 30.0953 13.6272 29.1271 13.6272C28.1403 13.6272 26.6498 12.5844 25.0447 12.6152C22.9328 12.6789 21.0118 13.7727 19.9843 15.4963C17.7963 19.0327 19.4284 24.23 21.5243 27.0886C22.5729 28.4883 23.7985 30.0519 25.4021 29.9964C26.9713 29.9357 27.5574 29.0623 29.4516 29.0623C31.3282 29.0623 31.8781 29.9964 33.5143 29.9612C35.1981 29.9357 36.259 28.5552 37.2709 27.1422C38.0244 26.1448 38.6041 25.0425 38.9888 23.8761C36.9888 23.0864 35.6884 21.257 35.6861 19.2299Z" fill="white"/>
    <path d="M32.5948 10.6866C33.513 9.65769 33.9653 8.33521 33.8557 7C32.4531 7.13753 31.1574 7.76336 30.2269 8.75278C29.308 9.72898 28.8426 11.0061 28.933 12.3029C30.3544 12.3165 31.7041 11.7208 32.5948 10.6866Z" fill="white"/>
    <path fill-rule="evenodd" clip-rule="evenodd" d="M49.3632 26.5947H54.5128L55.7484 30.0036H57.9668L53.0891 17.3916H50.823L45.9453 30.0036H48.1265L49.3632 26.5947ZM53.9783 25.0221H49.8964L51.9098 19.4897H51.9661L53.9783 25.0221Z" fill="white"/>
    <path fill-rule="evenodd" clip-rule="evenodd" d="M64.3904 30.0995C66.8627 30.0995 68.501 28.2636 68.501 25.4062C68.501 22.5567 66.8531 20.7119 64.3532 20.7119C63.0668 20.6732 61.8618 21.2978 61.2168 22.3375H61.1797V20.8081H59.2227V33.0452H61.2445V28.4907H61.2913C61.9088 29.537 63.1125 30.1619 64.3904 30.0995ZM63.8202 22.3208C65.3926 22.3208 66.4232 23.5447 66.4232 25.4063C66.4232 27.2849 65.3926 28.4998 63.8202 28.4998C62.2754 28.4998 61.2363 27.2591 61.2363 25.4063C61.2363 23.5705 62.2754 22.3208 63.8202 22.3208Z" fill="white"/>
    <path fill-rule="evenodd" clip-rule="evenodd" d="M75.2341 30.0993C77.7064 30.0993 79.3452 28.2635 79.3452 25.4061C79.3452 22.5566 77.6969 20.7118 75.1969 20.7118C73.9106 20.6731 72.7055 21.2976 72.0606 22.3374H72.0234V20.808H70.0664V33.045H72.0882V28.4906H72.135C72.7525 29.5369 73.9562 30.1618 75.2341 30.0993ZM74.664 22.3207C76.2364 22.3207 77.267 23.5446 77.267 25.4062H77.2669C77.2669 27.2847 76.2364 28.4997 74.664 28.4997C73.1192 28.4997 72.0801 27.259 72.0801 25.4062C72.0801 23.5704 73.1192 22.3207 74.664 22.3207Z" fill="white"/>
    <path d="M86.5072 26.4899C86.657 27.7406 87.9585 28.5618 89.737 28.5618C91.4411 28.5618 92.6672 27.7406 92.6672 26.6128C92.6672 25.6339 91.9277 25.0478 90.1768 24.6461L88.4259 24.2523C85.9452 23.6929 84.7935 22.6099 84.7935 20.8524C84.7935 18.6763 86.8249 17.1816 89.7083 17.1816C92.5641 17.1816 94.5211 18.6763 94.587 20.8524H92.5461C92.4239 19.5937 91.3094 18.834 89.6807 18.834C88.0519 18.834 86.9375 19.6027 86.9375 20.7214C86.9375 21.6131 87.6493 22.1378 89.3906 22.5394L90.8791 22.8806C93.651 23.4926 94.8016 24.532 94.8016 26.3768C94.8016 28.7363 92.7894 30.2141 89.5871 30.2141C86.5911 30.2141 84.5682 28.771 84.4375 26.4898L86.5072 26.4899Z" fill="white"/>
    <path d="M99.1667 18.6323V20.8084H101.04V22.303H99.1667V27.3722C99.1667 28.1597 99.5417 28.5267 100.365 28.5267C100.587 28.5231 100.809 28.5085 101.03 28.483V29.9688C100.66 30.0333 100.284 30.0626 99.9072 30.0561C97.913 30.0561 97.1353 29.3568 97.1353 27.5735V22.303H95.7031V20.8084H97.1353V18.6323H99.1667Z" fill="white"/>
    <path fill-rule="evenodd" clip-rule="evenodd" d="M106.797 20.6958C103.95 20.6958 102.125 22.5138 102.125 25.4069C102.125 28.308 103.932 30.1181 106.797 30.1181C109.662 30.1181 111.469 28.308 111.469 25.4069C111.469 22.5138 109.652 20.6958 106.797 20.6958ZM106.797 22.2515C108.435 22.2515 109.41 23.4228 109.41 25.4074H109.41C109.41 27.4 108.435 28.5624 106.797 28.5624C105.159 28.5624 104.185 27.4 104.185 25.4074C104.185 23.4317 105.159 22.2515 106.797 22.2515Z" fill="white"/>
    <path d="M113.133 20.8088H115.061V22.3738H115.108C115.377 21.3663 116.366 20.6729 117.477 20.7126C117.71 20.7118 117.943 20.7354 118.17 20.783V22.5484C117.876 22.4645 117.569 22.426 117.261 22.4344C116.667 22.4118 116.092 22.633 115.687 23.0397C115.282 23.4464 115.087 23.9981 115.155 24.5499V30.0039H113.133L113.133 20.8088Z" fill="white"/>
    <path fill-rule="evenodd" clip-rule="evenodd" d="M123.253 30.1179C125.481 30.1179 127.223 28.9724 127.495 27.3032L125.575 27.3032C125.206 28.1564 124.281 28.6823 123.3 28.5965C122.564 28.6218 121.853 28.3508 121.346 27.8525C120.839 27.3542 120.585 26.6765 120.65 25.992V25.8779H127.607V25.2313C127.607 22.4433 125.893 20.6957 123.168 20.6957C120.397 20.6957 118.609 22.5663 118.609 25.4505C118.609 28.3257 120.388 30.1179 123.253 30.1179ZM125.585 24.5585L120.66 24.5585C120.658 23.9377 120.922 23.342 121.393 22.9037C121.865 22.4655 122.504 22.221 123.169 22.2248C123.828 22.2115 124.464 22.4558 124.923 22.8988C125.381 23.3419 125.621 23.9434 125.585 24.5585Z" fill="white"/>
    <path fill-rule="evenodd" clip-rule="evenodd" d="M51.9363 8.72789C51.3446 8.1446 50.5039 7.83976 49.6456 7.89727H47.3008V13.9573H49.6456C51.5793 13.9573 52.7001 12.8444 52.7001 10.9084C52.8083 10.1114 52.528 9.31118 51.9363 8.72789ZM49.5325 13.0998H48.3086V8.75318H49.5325C50.1427 8.72157 50.736 8.94616 51.1503 9.36553C51.5646 9.78489 51.7564 10.3551 51.6733 10.9203C51.7629 11.4878 51.5738 12.0628 51.1585 12.4856C50.7432 12.9084 50.1459 13.1341 49.5325 13.0998Z" fill="white"/>
    <path fill-rule="evenodd" clip-rule="evenodd" d="M54.9257 9.62093C54.1761 10.0551 53.7551 10.8484 53.8391 11.6682C53.7535 12.4888 54.1742 13.2836 54.9243 13.7187C55.6745 14.1539 56.6242 14.1539 57.3744 13.7187C58.1246 13.2836 58.5452 12.4888 58.4596 11.6682C58.5436 10.8484 58.1226 10.0551 57.3731 9.62093C56.6236 9.18674 55.6752 9.18674 54.9257 9.62093ZM56.1511 10.0968C56.9882 10.0968 57.4653 10.6765 57.4653 11.6678H57.4653C57.4653 12.6631 56.9883 13.2423 56.1511 13.2423C55.3107 13.2423 54.8379 12.6671 54.8379 11.6678C54.8379 10.6765 55.3107 10.0968 56.1511 10.0968Z" fill="white"/>
    <path d="M64.6002 13.9566H63.5972L62.5847 10.5884H62.5082L61.5 13.9566H60.5066L59.1562 9.3833H60.1369L61.0145 12.873H61.0867L62.0939 9.3833H63.0214L64.0286 12.873H64.1051L64.9784 9.3833H65.9452L64.6002 13.9566Z" fill="white"/>
    <path d="M67.082 9.38382H68.0127V10.1103H68.085C68.3362 9.57543 68.9233 9.24822 69.5469 9.29554C70.0297 9.26165 70.5029 9.43457 70.8328 9.76547C71.1626 10.0964 71.3134 10.5494 71.2425 10.9965V13.957H70.2757V11.2232C70.2757 10.4882 69.9336 10.1227 69.2186 10.1227C68.8911 10.1085 68.5733 10.2285 68.3484 10.4512C68.1236 10.674 68.0142 10.9773 68.0488 11.2817V13.9571H67.082V9.38382Z" fill="white"/>
    <path d="M72.7832 7.59839H73.7494V13.9569H72.7832V7.59839Z" fill="white"/>
    <path fill-rule="evenodd" clip-rule="evenodd" d="M76.1797 9.62094C75.4301 10.0551 75.009 10.8485 75.093 11.6683C75.0075 12.4889 75.4282 13.2837 76.1784 13.7188C76.9287 14.1539 77.8784 14.1539 78.6286 13.7188C79.3788 13.2837 79.7995 12.4889 79.714 11.6683C79.798 10.8485 79.3769 10.0551 78.6273 9.62094C77.8777 9.18674 76.9293 9.18674 76.1797 9.62094ZM77.405 10.0976C78.2422 10.0976 78.7192 10.6773 78.7192 11.6686C78.7192 12.6639 78.2421 13.2431 77.405 13.2431C76.5646 13.2431 76.0918 12.6679 76.0918 11.6686C76.0918 10.6773 76.5646 10.0976 77.405 10.0976Z" fill="white"/>
    <path fill-rule="evenodd" clip-rule="evenodd" d="M82.5564 11.2984C81.391 11.3658 80.7344 11.8404 80.7344 12.6636C80.736 13.0539 80.9145 13.4254 81.2256 13.6862C81.5367 13.9469 81.9515 14.0727 82.3673 14.0323C82.9606 14.0579 83.5227 13.7836 83.8388 13.3143H83.9153V13.957H84.846V10.8322C84.846 9.86619 84.1533 9.29541 82.9251 9.29541C81.8138 9.29541 81.0223 9.79925 80.9235 10.5848H81.8595C81.9668 10.2614 82.3408 10.0765 82.8805 10.0765C83.5413 10.0765 83.8834 10.3492 83.8834 10.8322V11.227L82.5564 11.2984ZM83.8839 11.8911V12.2735C83.8628 12.5649 83.7158 12.8359 83.4767 13.0244C83.2376 13.2128 82.9268 13.3026 82.6155 13.2732C82.0895 13.2732 81.707 13.0337 81.707 12.6221C81.707 12.2189 82.013 12.0047 82.6877 11.9625L83.8839 11.8911Z" fill="white"/>
    <path fill-rule="evenodd" clip-rule="evenodd" d="M88.1468 9.3078C86.9091 9.3078 86.1133 10.2233 86.1133 11.6683C86.1133 13.1169 86.9006 14.0324 88.1468 14.0323C88.7786 14.054 89.3712 13.7467 89.6852 13.2344H89.7617V13.9569H90.6881V7.59839H89.7213V10.1101H89.6491C89.3571 9.59355 88.7718 9.28092 88.1468 9.3078ZM88.4203 13.2223C87.6012 13.2223 87.1114 12.6386 87.1114 11.6686H87.1113C87.1113 10.7065 87.6064 10.1189 88.4203 10.1189C89.2299 10.1189 89.7388 10.7194 89.7388 11.6726C89.7388 12.6302 89.2352 13.2223 88.4203 13.2223Z" fill="white"/>
    <path fill-rule="evenodd" clip-rule="evenodd" d="M95.1654 7.46641C94.9331 7.56793 94.7906 7.7916 94.8058 8.0308C94.8073 8.18223 94.8749 8.32653 94.993 8.43034C95.111 8.53414 95.2693 8.58847 95.4312 8.58076C95.6877 8.58055 95.9181 8.43417 96.0126 8.21139C96.1071 7.98862 96.0465 7.73455 95.8597 7.5703C95.6729 7.40606 95.3978 7.36488 95.1654 7.46641ZM95.9118 9.38332H94.9488V13.9566H95.9118V9.38332Z" fill="white"/>
    <path d="M97.4727 9.38388H98.4034V10.1104H98.4756C98.7268 9.57549 99.3139 9.24828 99.9375 9.2956C100.42 9.26171 100.894 9.43463 101.223 9.76553C101.553 10.0964 101.704 10.5494 101.633 10.9966V13.9571H100.666V11.2232C100.666 10.4883 100.324 10.1228 99.6092 10.1228C99.2817 10.1085 98.9639 10.2285 98.739 10.4513C98.5142 10.6741 98.4048 10.9774 98.4395 11.2817V13.9572H97.4727L97.4727 9.38388Z" fill="white"/>
    <path fill-rule="evenodd" clip-rule="evenodd" d="M107.576 9.3078C106.339 9.3078 105.543 10.2233 105.543 11.6683C105.543 13.1169 106.33 14.0324 107.576 14.0323C108.208 14.054 108.801 13.7467 109.115 13.2344H109.191V13.9569H110.118V7.59839H109.151V10.1101H109.079C108.787 9.59355 108.201 9.28092 107.576 9.3078ZM107.85 13.2223C107.031 13.2223 106.541 12.6386 106.541 11.6686H106.541C106.541 10.7065 107.036 10.1189 107.85 10.1189C108.66 10.1189 109.168 10.7194 109.168 11.6726C109.168 12.6302 108.665 13.2223 107.85 13.2223Z" fill="white"/>
    <path fill-rule="evenodd" clip-rule="evenodd" d="M113.725 14.0453C114.683 14.1422 115.577 13.5849 115.848 12.7222L114.917 12.7222C114.685 13.1106 114.225 13.3296 113.752 13.2766C113.387 13.2804 113.038 13.1404 112.789 12.8909C112.541 12.6415 112.417 12.3058 112.447 11.9665V11.9159H115.906V11.6009C115.906 10.1649 115.084 9.29549 113.721 9.29549C113.066 9.29027 112.441 9.55059 112.008 10.009C111.574 10.4674 111.375 11.0788 111.462 11.6848C111.373 12.2891 111.573 12.8995 112.008 13.3541C112.444 13.8086 113.072 14.0614 113.725 14.0453ZM114.922 11.2481H112.448C112.443 10.9327 112.575 10.6291 112.814 10.406C113.053 10.1829 113.378 10.0594 113.716 10.0633C114.049 10.0562 114.37 10.1808 114.6 10.4064C114.83 10.632 114.947 10.9377 114.922 11.2481Z" fill="white"/>
</svg>

<svg width="142" height="42" viewBox="0 0 142 42" fill="none" xmlns="http://www.w3.org/2000/svg"><path fill="#000" d="M0 0h142v42H0z"/><path d="M35.686 19.23c.025-1.792 1.031-3.447 2.666-4.385-1.036-1.382-2.71-2.226-4.515-2.28-1.9-.185-3.742 1.062-4.71 1.062-.987 0-2.477-1.043-4.082-1.012-2.112.064-4.033 1.158-5.06 2.881-2.189 3.537-.557 8.734 1.54 11.593 1.048 1.4 2.274 2.963 3.877 2.907 1.57-.06 2.155-.934 4.05-.934 1.876 0 2.426.934 4.062.9 1.684-.026 2.745-1.407 3.757-2.82.753-.997 1.333-2.1 1.718-3.266-2-.79-3.3-2.619-3.303-4.646zM32.595 10.687c.918-1.03 1.37-2.352 1.26-3.687-1.402.138-2.698.763-3.628 1.753-.919.976-1.384 2.253-1.294 3.55 1.421.013 2.771-.582 3.662-1.616z" fill="#fff"/><path fill-rule="evenodd" clip-rule="evenodd" d="M49.363 26.595h5.15l1.235 3.409h2.219l-4.878-12.612h-2.266l-4.878 12.612h2.181l1.237-3.41zm4.615-1.573h-4.082l2.014-5.532h.056l2.012 5.532zM64.39 30.1c2.473 0 4.111-1.836 4.111-4.694 0-2.85-1.648-4.694-4.148-4.694-1.286-.039-2.491.586-3.136 1.625h-.037v-1.529h-1.957v12.237h2.022v-4.554h.046c.618 1.046 1.822 1.67 3.1 1.608zm-.57-7.78c1.573 0 2.603 1.225 2.603 3.086 0 1.879-1.03 3.094-2.603 3.094-1.545 0-2.584-1.24-2.584-3.094 0-1.835 1.04-3.085 2.584-3.085zM75.234 30.1c2.472 0 4.111-1.837 4.111-4.694 0-2.85-1.648-4.694-4.148-4.694-1.286-.039-2.492.586-3.136 1.625h-.038v-1.529h-1.957v12.237h2.022v-4.554h.047c.617 1.046 1.821 1.67 3.1 1.608zm-.57-7.78c1.572 0 2.603 1.225 2.603 3.086 0 1.879-1.03 3.094-2.603 3.094-1.545 0-2.584-1.241-2.584-3.094 0-1.836 1.04-3.085 2.584-3.085z" fill="#fff"/><path d="M86.507 26.49c.15 1.25 1.451 2.072 3.23 2.072 1.704 0 2.93-.821 2.93-1.95 0-.978-.74-1.564-2.49-1.966l-1.751-.394c-2.48-.56-3.633-1.642-3.633-3.4 0-2.176 2.032-3.67 4.915-3.67 2.856 0 4.813 1.494 4.879 3.67h-2.04c-.123-1.258-1.238-2.018-2.866-2.018-1.63 0-2.743.769-2.743 1.887 0 .892.711 1.417 2.453 1.818l1.488.342c2.772.612 3.923 1.651 3.923 3.496 0 2.36-2.013 3.837-5.215 3.837-2.996 0-5.019-1.443-5.15-3.724h2.07zM99.167 18.632v2.176h1.873v1.495h-1.873v5.07c0 .787.375 1.154 1.198 1.154.222-.004.444-.018.665-.044v1.486c-.37.064-.746.094-1.123.087-1.994 0-2.772-.7-2.772-2.483v-5.27h-1.432v-1.495h1.432v-2.176h2.032z" fill="#fff"/><path fill-rule="evenodd" clip-rule="evenodd" d="M106.797 20.696c-2.847 0-4.672 1.818-4.672 4.71 0 2.902 1.807 4.712 4.672 4.712 2.865 0 4.672-1.81 4.672-4.711 0-2.893-1.817-4.711-4.672-4.711zm0 1.555c1.638 0 2.613 1.172 2.613 3.156 0 1.993-.975 3.155-2.613 3.155s-2.612-1.162-2.612-3.155c0-1.975.974-3.155 2.612-3.155z" fill="#fff"/><path d="M113.133 20.809h1.928v1.565h.047c.269-1.008 1.258-1.701 2.369-1.661.233-.001.466.022.693.07v1.765a3.015 3.015 0 00-.909-.114 2.11 2.11 0 00-1.574.606c-.405.406-.6.958-.532 1.51v5.454h-2.022v-9.195z" fill="#fff"/><path fill-rule="evenodd" clip-rule="evenodd" d="M123.253 30.118c2.228 0 3.97-1.146 4.242-2.815h-1.92c-.369.853-1.294 1.38-2.275 1.293a2.66 2.66 0 01-1.954-.744 2.301 2.301 0 01-.696-1.86v-.114h6.957v-.647c0-2.788-1.714-4.535-4.439-4.535-2.771 0-4.559 1.87-4.559 4.755 0 2.875 1.779 4.667 4.644 4.667zm2.332-5.56h-4.925a2.251 2.251 0 01.733-1.654 2.591 2.591 0 011.776-.68 2.458 2.458 0 011.754.675c.458.443.698 1.044.662 1.66zM51.936 8.728a2.984 2.984 0 00-2.29-.83H47.3v6.06h2.345c1.933 0 3.054-1.114 3.054-3.05a2.57 2.57 0 00-.764-2.18zM49.532 13.1H48.31V8.753h1.224a2.123 2.123 0 011.617.613c.415.419.606.99.523 1.554.09.568-.1 1.143-.515 1.566a2.117 2.117 0 01-1.626.614zM54.926 9.62c-.75.435-1.17 1.228-1.087 2.048-.085.82.335 1.616 1.085 2.05.75.436 1.7.436 2.45 0 .75-.434 1.171-1.23 1.086-2.05.084-.82-.337-1.613-1.087-2.047a2.462 2.462 0 00-2.447 0zm1.225.477c.837 0 1.314.58 1.314 1.57 0 .996-.477 1.575-1.314 1.575-.84 0-1.313-.575-1.313-1.574 0-.991.473-1.571 1.313-1.571z" fill="#fff"/><path d="M64.6 13.957h-1.003l-1.012-3.369h-.077L61.5 13.957h-.993l-1.35-4.574h.98l.877 3.49h.073l1.007-3.49h.927l1.008 3.49h.076l.873-3.49h.967L64.6 13.957zM67.082 9.384h.93v.726h.073c.251-.535.838-.862 1.462-.814.483-.034.956.139 1.286.47.33.33.48.783.41 1.23v2.961h-.967v-2.734c0-.735-.342-1.1-1.057-1.1a1.167 1.167 0 00-.87.328 1.007 1.007 0 00-.3.83v2.676h-.967V9.384zM72.783 7.598h.966v6.359h-.966V7.598z" fill="#fff"/><path fill-rule="evenodd" clip-rule="evenodd" d="M76.18 9.62c-.75.435-1.171 1.229-1.087 2.048-.086.82.335 1.616 1.085 2.05.75.436 1.7.436 2.45 0 .75-.434 1.171-1.23 1.086-2.05.084-.82-.337-1.613-1.087-2.047a2.462 2.462 0 00-2.447 0zm1.225.478c.837 0 1.314.58 1.314 1.57 0 .996-.477 1.575-1.314 1.575-.84 0-1.313-.575-1.313-1.574 0-.992.473-1.571 1.313-1.571zM82.556 11.298c-1.165.068-1.822.542-1.822 1.366.002.39.18.761.492 1.022.31.26.725.387 1.141.346a1.684 1.684 0 001.472-.718h.076v.643h.931v-3.125c0-.966-.693-1.537-1.92-1.537-1.112 0-1.904.504-2.002 1.29h.935c.108-.324.482-.509 1.022-.509.66 0 1.002.273 1.002.756v.395l-1.327.071zm1.328.593v.383a1.056 1.056 0 01-.407.75c-.24.189-.55.279-.862.25-.525 0-.908-.24-.908-.652 0-.403.306-.617.98-.66l1.197-.07zM88.147 9.308c-1.238 0-2.034.915-2.034 2.36 0 1.449.788 2.364 2.034 2.364.632.022 1.224-.285 1.538-.798h.077v.723h.926V7.598h-.967v2.512h-.072c-.292-.516-.877-.83-1.502-.802zm.273 3.914c-.819 0-1.309-.583-1.309-1.553 0-.963.495-1.55 1.31-1.55.809 0 1.318.6 1.318 1.554 0 .957-.504 1.55-1.319 1.55zM95.165 7.466a.58.58 0 00-.36.565.54.54 0 00.188.4.62.62 0 00.438.15.627.627 0 00.582-.37.558.558 0 00-.153-.64.66.66 0 00-.695-.105zm.747 1.917h-.963v4.574h.963V9.383z" fill="#fff"/><path d="M97.473 9.384h.93v.726h.073c.25-.535.838-.862 1.462-.814.482-.034.956.139 1.285.47.33.33.481.783.41 1.23v2.961h-.967v-2.734c0-.735-.342-1.1-1.057-1.1a1.166 1.166 0 00-.87.328 1.007 1.007 0 00-.3.83v2.676h-.966V9.384z" fill="#fff"/><path fill-rule="evenodd" clip-rule="evenodd" d="M107.576 9.308c-1.237 0-2.033.915-2.033 2.36 0 1.449.787 2.364 2.033 2.364.632.022 1.225-.285 1.539-.798h.076v.723h.927V7.598h-.967v2.512h-.072c-.292-.516-.878-.83-1.503-.802zm.274 3.914c-.819 0-1.309-.583-1.309-1.553 0-.963.495-1.55 1.309-1.55.81 0 1.318.6 1.318 1.554 0 .957-.503 1.55-1.318 1.55zM113.725 14.045c.958.097 1.852-.46 2.123-1.323h-.931a1.199 1.199 0 01-1.165.555 1.341 1.341 0 01-.963-.386 1.164 1.164 0 01-.342-.925v-.05h3.459V11.6c0-1.436-.822-2.306-2.185-2.306a2.332 2.332 0 00-1.713.714 2.015 2.015 0 00-.546 1.676 1.99 1.99 0 00.546 1.67 2.303 2.303 0 001.717.69zm1.197-2.797h-2.474a1.127 1.127 0 01.366-.842 1.3 1.3 0 01.902-.343c.333-.007.654.118.884.343.23.226.347.532.322.842z" fill="#fff"/></svg>
